src/telerik-icons/solid/toolbar-float.svg

<?xml version="1.0" encoding="utf-8"?>
<svg xmlns="http://www.w3.org/2000/svg" width="512" height="512" viewBox="0 0 512 512">
  <path d="M64 352h416v128H64V352zm96 32H96v64h96v-64h-32zm160 0h-96v64h96v-64zm32 0v64h96v-64h-96zM63.961 131.844l90.51 90.51 45.255-45.255-90.51-90.51-45.255 45.255zm0 0 90.51 90.51 45.255-45.255-90.51-90.51-45.255 45.255zm158.392 67.882 67.882-67.882-22.627-22.627-22.627 22.627-90.51-90.51c-12.445-12.445-32.81-12.445-45.255 0l-67.882 67.882c-12.445 12.445-12.445 32.81 0 45.255l90.51 90.51-22.627 22.627 22.627 22.627 67.882-67.882L297.373 320 320 297.373l-97.647-97.647zm-67.882 22.627-90.51-90.51 45.255-45.255 90.51 90.51-45.255 45.255zM480 256h-64v64h64v-64z"/>
</svg>

<?xml version="1.0" encoding="utf-8"?>
<!-- Generator: Adobe Illustrator 19.2.1, SVG Export Plug-In . SVG Version: 6.00 Build 0)  -->
<svg xmlns="http://www.w3.org/2000/svg" width="512" height="512" viewBox="0 0 512 512">
<path d="M64,352h416v128H64V352z M160,384H96v64h96v-64H160z M320,384h-96v64h96V384z
	 M352,384v64h96v-64H352z M63.961,131.844l90.51,90.51l45.255-45.255l-90.51-90.51L63.961,131.844z M416,320 M160,320
	 M63.961,131.844l90.51,90.51l45.255-45.255l-90.51-90.51L63.961,131.844z M222.353,199.726l67.882-67.882l-22.627-22.627
	l-22.627,22.627l-90.51-90.51c-12.445-12.445-32.81-12.445-45.255,0l-67.882,67.882c-12.445,12.445-12.445,32.81,0,45.255
	l90.51,90.51l-22.627,22.627l22.627,22.627l67.882-67.882L297.373,320L320,297.373L222.353,199.726z M154.471,222.353l-90.51-90.51
	l45.255-45.255l90.51,90.51L154.471,222.353z M480,256h-64v64h64V256z" />
</svg>
